**kern	**kern	**quality
*staff1	*staff1	*staff1
*>solos[solo1,solo2]	*>solos[solo1,solo2]	*>solos[solo1,solo2]
=1-	.	.
*clefG2	*clefG2	*clefG2
*k[]	*k[]	*k[]
*F:	*F:	*F:
*M4/4	*M4/4	*M4/4
*>head1	*>head1	*>head1
{8g/L	1G:	:min
!!Head
8b-/	.	.
8a/	.	.
8g/J	.	.
8cc/L	.	.
8a/	.	.
8g/	.	.
8f/J	.	.
=2	.	.
8b-/L	1G:	:min
8a/J	.	.
[4b-\	.	.
8b-/L]	.	.
8a/	.	.
8g/	.	.
8f/J	.	.
=3	.	.
8g/L	1G:	:min
8b-/	.	.
8a/	.	.
8g/J	.	.
8cc\L	.	.
8ee\	.	.
8dd\	.	.
8cc\J	.	.
=4	.	.
8g/L	1G:	:min
8f/J	.	.
[4g/	.	.
8g/L]	.	.
8cc/	.	.
8cc/	.	.
8a/J	.	.
=5	.	.
8b-\L	1G:	:min
8ff\	.	.
8ee\	.	.
8cc\J	.	.
8g/L	.	.
8dd/	.	.
8cc/	.	.
8a/J	.	.
=6	.	.
8b-/L	1G:	:min
8a/J	.	.
[4b-\	.	.
4b-\]	.	.
12f/L	.	.
12g/	.	.
12a/J	.	.
=7	.	.
8b-/L	1G:	:min
8g/	.	.
8a/	.	.
8f/J	.	.
8e/L	.	.
8f/	.	.
8g/	.	.
8a/J	.	.
=8	.	.
4cc\}	1F:	:maj
8r	.	.
{8a/	.	.
12b-\L	.	.
12cc\	.	.
12b-\J	.	.
8a/L	.	.
8g/J	.	.
=9	.	.
8b-/L	1G:	:min
8g/	.	.
8a/	.	.
8f/J	.	.
8e/L	.	.
8f/	.	.
8g/	.	.
8a/J	.	.
=10:|!	=10:	:|!
4cc\}	1F:	:maj
4r	.	.
8r	.	.
*>bridge	*>bridge	*>bridge
{8e/	.	.
!!Bridge
24g/LL	.	.
24a/	.	.
24g/JJ	.	.
8f/	.	.
=11	.	.
8e/	1E:	:min
8r	.	.
8B/L	.	.
8d/J	.	.
4c#/	.	.
8r	.	.
8e/	.	.
=12	.	.
8g/L	1A:	:dom
8a/	.	.
8b/	.	.
8g/J	.	.
8a/L	.	.
8f#/	.	.
8e/	.	.
8d/J	.	.
=13	.	.
4a/	1D:	:dom
8c/L	.	.
[8d/J	.	.
4d/]}	.	.
4r	.	.
=14	.	.
1r	1D:	:dom
=15	.	.
4r	1G:	:dom
{8gg\L	.	.
16gg-\L	.	.
16ff\JJ	.	.
4ee\	.	.
8r	.	.
[8ff\	.	.
=16	.	.
8ff\]	1G:	:dom
24ee\LL	.	.
24dd\	.	.
24cc\JJ	.	.
4b\	.	.
8r	.	.
8ee\L	.	.
8cc#\	.	.
8dd\J	.	.
=17	.	.
8ff\	1G:	:min
24ee\LL	.	.
24dd\	.	.
24cc\JJ	.	.
8b-/L	.	.
8a/J	.	.
8g/L	.	.
8f/J	.	.
12e/L	.	.
12g/	.	.
12b-/J	.	.
=18	.	.
8dd-\L	1C:	:dom
16ee-\L	.	.
16dd-\J	.	.
8cc\	.	.
8a\J	.	.
16b-\LL	.	.
16cc\	.	.
16b-\	.	.
16a\J	.	.
8g\J	.	.
8r}	.	.
=19	.	.
*>head2	*>head2	*>head2
{8g/L	1G:	:min
!!Head
8b-/	.	.
8a/	.	.
8g/J	.	.
8cc/L	.	.
8a/	.	.
8g/	.	.
8f/J	.	.
=20	.	.
8b-/L	1G:	:min
8a/J	.	.
[4b-\	.	.
8b-/L]	.	.
8a/	.	.
8g/	.	.
8f/J	.	.
=21	.	.
8g/L	1G:	:min
8b-/	.	.
8a/	.	.
8g/J	.	.
8cc\L	.	.
8ee\	.	.
8dd\	.	.
8cc\J	.	.
=22	.	.
8g/L	1G:	:min
8f/J	.	.
[4g/	.	.
8g/L]	.	.
8cc/	.	.
8cc/	.	.
8a/J	.	.
=23	.	.
8b-\L	1G:	:min
8ff\	.	.
8ee\	.	.
8cc\J	.	.
8g/L	.	.
8dd/	.	.
8cc/	.	.
8a/J	.	.
=24	.	.
8b-/L	1G:	:min
8a/J	.	.
[4b-\	.	.
4b-\]	.	.
12f/L	.	.
12g/	.	.
12a/J	.	.
=25	.	.
8b-/L	2G:	:min
8g/	.	.
8a/	.	.
8f/J	.	.
8e/L	2C:	:dom
8f/	.	.
8g/	.	.
8a/J	.	.
=26	.	.
4cc\}	1F:	:maj
!!A1	Chorus 1
*>solo1	*>solo1	*>solo1
{12c/L	.	.
12d/	.	.
12e/J	.	.
8f/L	.	.
8g/	.	.
8e/	.	.
8d/J	.	.
=27	.	.
4.f/	1G:	:min
8c/	.	.
2d/}	.	.
=28	.	.
2r	1G:	:min
4r	.	.
8r	.	.
{8c/	.	.
=29	.	.
8e/L	1G:	:min
8g/	.	.
8d/	.	.
8e/J	.	.
8f/L	.	.
8g/	.	.
8a/	.	.
8cc/J	.	.
=30	.	.
8g/L	1G:	:min
8a/	.	.
8b-/	.	.
8dd/J	.	.
8a-\L	.	.
8ee\	.	.
8dd\	.	.
8dd-\J	.	.
=31	.	.
8cc\L	1F:	:dom
8b-\J	.	.
24a/LL	.	.
24b-/	.	.
24a/JJ	.	.
8g/	.	.
8f/L	.	.
8c/	.	.
8e-/	.	.
8d-/J	.	.
=32	.	.
12d/L	1B-:	:dom
12f/	.	.
12a-/J	.	.
8b\L	.	.
[8b-\J	.	.
8b-/L]	.	.
[8a-/J	.	.
24a-/LL]	.	.
24b-/	.	.
24a-/JJ	.	.
8f/	.	.
=33	.	.
4a/	1F:	:maj
8c/	.	.
8r	.	.
2c/}	.	.
=34	.	.
2r	2A:	:min
2r	2D:	:dom
=35	.	.
4r	1G:	:min
{16f#/LL	.	.
16g/	.	.
16b-/	.	.
16dd/JJ	.	.
16ff\LL	.	.
16dd\	.	.
16ee-\	.	.
16een\JJ	.	.
16cc\LL	.	.
16cc#\	.	.
16dd\	.	.
16ccn\JJ	.	.
=36	.	.
16b-/LL	1G:	:min
16a/	.	.
16g/	.	.
16f/JJ	.	.
16e/LL	.	.
16g/	.	.
16b-/	.	.
16dd-/JJ	.	.
8cc\L	.	.
8a\	.	.
8b-\J	.	.
24cc\LL	.	.
24b-\	.	.
24a\JJ	.	.
=37	.	.
8g/}	1G:	:min
8r	.	.
{12c/L	.	.
12e/	.	.
12g/J	.	.
8g-/L	.	.
8e-/	.	.
8B/	.	.
8A-/J	.	.
=38	.	.
16G-/LL	2G:	:min
16Gn/	.	.
16B-/	.	.
16d/J	.	.
8f/	2C:	:dom
8d/J	.	.
8e/L	.	.
[8a/J	.	.
4a/]	.	.
=39	.	.
8f/L	1F:	:dom
8c/	.	.
8d/	.	.
[8e-/J	.	.
4e-/]}	.	.
4r	.	.
=40	.	.
4r	1B-:	:dom
8r	.	.
{8c#/	.	.
12d/L	.	.
12f/	.	.
12a/J	.	.
4cc\	.	.
=41	.	.
4r	1F:	:dom
8r	.	.
8b-\	.	.
24a/LL	.	.
24b-/	.	.
24a/JJ	.	.
8f/L	.	.
8a/	.	.
[8b-/J	.	.
=42	.	.
4b-\]}	1F:	:dom
4r	.	.
8r	.	.
{8d#/L	.	.
8e/	.	.
8f#/J	.	.
=43	.	.
8g/L	1E:	:min
!!B1
8f#/	.	.
8e/	.	.
8d/J	.	.
8c#/L	.	.
8e/	.	.
8g/	.	.
8a/J	.	.
=44	.	.
8b\	1A:	:dom
4ff#\	.	.
[8ffn\	.	.
8ff\L]	.	.
16cc#\L	.	.
16a\JJ	.	.
4g/}	.	.
=45	.	.
4r	1D:	:dom
8r	.	.
{16d/LL	.	.
16e/JJ	.	.
8f#/L	.	.
8g/	.	.
8a/	.	.
8b/J	.	.
=46	.	.
8cc/L	1D:	:dom
8a/	.	.
8b/	.	.
8a/J}	.	.
4r	.	.
8r	.	.
{16d/LL	.	.
16e/JJ	.	.
=47	.	.
8f/L	1G:	:dom
!!A2
8g/	.	.
8a/	.	.
8b/J	.	.
8ee\L	.	.
16ee-\L	.	.
16dd\J	.	.
8dd-\	.	.
8a\J	.	.
=48	.	.
8f/L	1G:	:dom
8d-/J	.	.
4a/}	.	.
2r	.	.
=49	.	.
4r	1G:	:min
{16g/LL	.	.
16a/	.	.
16b-/	.	.
16cc/JJ	.	.
16dd\LL	.	.
16cc\	.	.
16b-\	.	.
16a\J	.	.
8g\J	.	.
8r	.	.
=50	.	.
16g/LL	1C:	:dom
16a/	.	.
16b-/	.	.
16cc/JJ	.	.
16dd-\LL	.	.
16cc\	.	.
16b-\	.	.
16a\JJ	.	.
8g/}	.	.
8r	.	.
8r	.	.
{16d/LL	.	.
16e/JJ	.	.
=51	.	.
8f/	1G:	:min
8r	.	.
8cc\L	.	.
8cc\J	.	.
4b\	.	.
8cc\L	.	.
[8b-\J	.	.
=52	.	.
4b-\]	1G:	:min
8cc/L	.	.
[8g/J	.	.
4g/]}	.	.
4r	.	.
=53	.	.
8r	1G:	:min
{16cc\LL	.	.
16b-\JJ	.	.
16a/LL	.	.
16b-/	.	.
16a/	.	.
16g/JJ	.	.
8f#/L	.	.
8e-/	.	.
8c/	.	.
8c#/J	.	.
=54	.	.
8d/L	1C:	:dom
8B-/	.	.
8G/	.	.
8A/J	.	.
8c/L	.	.
8A/J	.	.
16B-/LL	.	.
16c/	.	.
16e/	.	.
16g/JJ	.	.
=55	.	.
8f/L	1F:	:dom
8c/	.	.
8d/	.	.
[8e-/J	.	.
4e-/]}	.	.
4r	.	.
=56	.	.
2r	1B-:	:dom
8r	.	.
{8aa-\L	.	.
8gg\	.	.
[8ff\J	.	.
=57	.	.
8ff\L]	1F:	:dom
8ee-\	.	.
8dd\	.	.
8cc\J	.	.
8.r	.	.
16f/LK	.	.
8f/	.	.
[8b/J	.	.
=58	.	.
4b\]	1F:	:dom
8b-/L	.	.
8f/J	.	.
4a/	.	.
8cc/L	.	.
8a/J	.	.
=59	.	.
2d/}	1G:	:min
2r	.	.
=60	.	.
!!Trumpet Solo
1r	.	.
=61	.	.
1r	.	.
=62	.	.
1r	.	.
=63	.	.
1r	.	.
=64	.	.
1r	.	.
=65	.	.
1r	.	.
=66	.	.
1r	.	.
=67	.	.
1r	.	.
=68	.	.
1r	.	.
=69	.	.
1r	.	.
=70	.	.
1r	.	.
=71	.	.
1r	.	.
=72	.	.
1r	.	.
=73	.	.
1r	.	.
=74	.	.
1r	.	.
=75	.	.
1r	.	.
=76	.	.
1r	.	.
=77	.	.
1r	.	.
=78	.	.
1r	.	.
=79	.	.
1r	.	.
=80	.	.
1r	.	.
=81	.	.
1r	.	.
=82	.	.
1r	.	.
=83	.	.
1r	.	.
=84	.	.
1r	.	.
=85	.	.
1r	.	.
=86	.	.
1r	.	.
=87	.	.
1r	.	.
=88	.	.
1r	.	.
=89	.	.
1r	.	.
=90	.	.
1r	.	.
=91	.	.
8r	1G:	:min
!!A3	Chorus 2
*>solo2	*>solo2	*>solo2
{16d/LL	.	.
16e/J	.	.
8f/	.	.
8g/J	.	.
8a/L	.	.
8g/	.	.
8f/J	.	.
8r	.	.
=92	.	.
4b-\	1G:	:min
8dd\L	.	.
[8cc\J	.	.
8cc\L]	.	.
[8a\	.	.
8a\]	.	.
16cc\L	.	.
16ee\JJ	.	.
=93	.	.
8ff/L	1G:	:min
8a/J}	.	.
4r	.	.
4r	.	.
8r	.	.
{8c/	.	.
=94	.	.
16g/LL	2G:	:min
16a/	.	.
16g/	.	.
16f/J	.	.
8e/	.	.
8d/J	.	.
8c#/L	2C:	:dom
8d/	.	.
8f/	.	.
16e/L	.	.
16c#/JJ	.	.
=95	.	.
8c/L	1F:	:dom
8B-/J	.	.
16c/LL	.	.
16e-/	.	.
16g/	.	.
16b-/JJ	.	.
8dd\L	.	.
8dd-\	.	.
8cc\	.	.
8bn\J	.	.
=96	.	.
8b-/L	1B-:	:dom
8f/	.	.
8g/	.	.
[8a-/J	.	.
4a-/]	.	.
8r	.	.
8f/	.	.
=97	.	.
4a/	1F:	:dom
8cc/L	.	.
8a/J	.	.
2g/}	.	.
=98	.	.
2r	2F:	:dom
4r	2D:	:dom
8r	.	.
{16ee\LL	.	.
16cc\JJ	.	.
=99	.	.
8b\L	1G:	:min
8cc\	.	.
8ee\	.	.
8gg\J	.	.
8a\L	.	.
8b-\	.	.
8dd\	.	.
8ff\J	.	.
=100	.	.
8g#/L	1G:	:min
8a/	.	.
8cc/	.	.
8ee/J	.	.
8f#/L	.	.
8gn/	.	.
8b-/	.	.
8dd/J	.	.
=101	.	.
8cc\L	1G:	:min
8b-\J	.	.
24a/LL	.	.
24b-/	.	.
24a/JJ	.	.
8g/	.	.
8g-/L	.	.
8e-/	.	.
8c/	.	.
8c#/J	.	.
=102	.	.
8d/L	2G:	:min
8A/J	.	.
20B-/LL	.	.
20d/	.	.
20f/	.	.
20a/	.	.
20cc/JJ	.	.
8.a-/L	2C:	:dom
16cc/Jk	.	.
[4g/	.	.
=103	.	.
4g/]}	1F:	:dom
8r	.	.
{16ee-\LL	.	.
16dd\JJ	.	.
16cc/LL	.	.
16b-/	.	.
16a/	.	.
16g/JJ	.	.
16f/LL	.	.
16e/	.	.
16e-/JJ}	.	.
16r	.	.
=104	.	.
8r	1B-:	:dom
{8c#/	.	.
16d/LL	.	.
16f/	.	.
16g/	.	.
16a/JJ	.	.
16cc#\LL	.	.
16b\	.	.
16b-\	.	.
16a\JJ	.	.
16g/LL	.	.
16f/	.	.
16d-/	.	.
16B-/JJ	.	.
=105	.	.
4c/	1F:	:dom
8r	.	.
16B/LL	.	.
16c/JJ	.	.
16e/LL	.	.
16g/	.	.
16d/	.	.
16e/JJ	.	.
4f/}	.	.
=106	.	.
8r	1F:	:dom
{[8a/	.	.
12a\L]	.	.
12b-\	.	.
12bn\J	.	.
16cc/LL	.	.
16a/JJ	.	.
24b-\LL	.	.
24cc\	.	.
24b-\JJ	.	.
16a/LL	.	.
16f/	.	.
16d/	.	.
16c/JJ	.	.
=107	.	.
4g/}	1E:	:min
!!B2
4r	.	.
2r	.	.
=108	.	.
1r	.	.
=109	.	.
1r	.	.
=110	.	.
1r	.	.
=111	.	.
1r	.	.
=112	.	.
1r	.	.
=113	.	.
1r	.	.
=114	.	.
1r	.	.
=115	.	.
*>head	*>head	*>head
{8g/L	1G:	:min
!!Head
8b-/	.	.
8a/	.	.
8g/J	.	.
8cc/L	.	.
8a/	.	.
8g/	.	.
8f/J	.	.
=116	.	.
8b-/L	1G:	:min
8a/J	.	.
[4b-\	.	.
8b-/L]	.	.
8a/	.	.
8g/	.	.
8f/J	.	.
=117	.	.
8g/L	1G:	:min
8b-/	.	.
8a/	.	.
8g/J	.	.
8cc\L	.	.
8ee\	.	.
8dd\	.	.
8cc\J	.	.
=118	.	.
8g/L	1G:	:min
8f/J	.	.
[4g/	.	.
8g/L]	.	.
8cc/	.	.
8cc/	.	.
8a/J	.	.
=119	.	.
8b-\L	1G:	:min
8ff\	.	.
8ee\	.	.
8cc\J	.	.
8g/L	.	.
8dd/	.	.
8cc/	.	.
8a/J	.	.
=120	.	.
8b-/L	1G:	:min
8a/J	.	.
[4b-\	.	.
4b-\]	.	.
12f/L	.	.
12g/	.	.
12a/J	.	.
=121	.	.
8b-/L	1G:	:min
8g/	.	.
8a/	.	.
8f/J	.	.
8e/L	.	.
8f/	.	.
8g/	.	.
8a/J	.	.
=122	.	.
4cc\}	1F:	:maj
4r	.	.
2r	.	.
==	.	.
*-	*-	*-
